img/mainHeaderButtonmens.svg

<svg xmlns="http://www.w3.org/2000/svg" width="375" height="108" viewBox="0 0 375 108">
  <g id="アートワーク_3" data-name="アートワーク 3" transform="translate(187.5 54)">
    <g id="グループ_354" data-name="グループ 354" transform="translate(-187.5 -54)">
      <g id="グループ_352" data-name="グループ 352">
        <rect id="長方形_99" data-name="長方形 99" width="375" height="108" fill="#003b50"/>
        <path id="パス_2228" data-name="パス 2228" d="M364,11V97H11V11H364m1-1H10V98H365V10Z" fill="#003b50"/>
        <path id="パス_2229" data-name="パス 2229" d="M363.828,11.172V96.828H11.172V11.172H363.828M365,10H10V98H365V10Z" fill="#fffffe"/>
      </g>
      <g id="グループ_353" data-name="グループ 353">
        <path id="パス_2230" data-name="パス 2230" d="M114.386,81.45l.886-51.258h9.682l7.277,35.5,7.594-35.5h9.365l.95,51.258h-6.961l-.76-35.627L135.142,81.45H129.51l-7.4-35.754-.7,35.754Z" fill="#fff"/>
        <path id="パス_2231" data-name="パス 2231" d="M159.613,81.45V30.192h21.516v6.581h-12.15V51.518h9.555v6.518h-9.555V75h12.276V81.45Z" fill="#fff"/>
        <path id="パス_2232" data-name="パス 2232" d="M189.57,81.45V30.192h6.518l12.467,29.236V30.192h7.72V81.45h-6.2l-12.53-30.628V81.45Z" fill="#fff"/>
        <path id="パス_2233" data-name="パス 2233" d="M239.461,82.146a15.139,15.139,0,0,1-7.72-1.8,11.349,11.349,0,0,1-4.683-5.284,22.682,22.682,0,0,1-1.772-8.543l8.037-1.582a24.8,24.8,0,0,0,.727,5.253,7.6,7.6,0,0,0,1.836,3.512,4.4,4.4,0,0,0,3.259,1.234,3.655,3.655,0,0,0,3.227-1.361,5.884,5.884,0,0,0,.949-3.449,9.326,9.326,0,0,0-1.519-5.505,23.724,23.724,0,0,0-4.05-4.3L231.3,54.619a19.379,19.379,0,0,1-4.335-5.221,14.381,14.381,0,0,1-1.614-7.119q0-6.075,3.544-9.366t9.682-3.291a14.38,14.38,0,0,1,6.012,1.108,9.577,9.577,0,0,1,3.828,3.069,13.87,13.87,0,0,1,2.12,4.461,26.375,26.375,0,0,1,.886,5.284l-7.973,1.393a27.308,27.308,0,0,0-.538-4.3,6,6,0,0,0-1.456-2.974,4.088,4.088,0,0,0-3.069-1.076,3.883,3.883,0,0,0-3.2,1.361,5.193,5.193,0,0,0-1.107,3.386,7.765,7.765,0,0,0,1.076,4.271,16.686,16.686,0,0,0,3.1,3.449l6.391,5.632a26.508,26.508,0,0,1,5.411,6.233,15.919,15.919,0,0,1,2.246,8.638,12.988,12.988,0,0,1-1.614,6.518,11.558,11.558,0,0,1-4.493,4.461A13.558,13.558,0,0,1,239.461,82.146Z" fill="#fff"/>
      </g>
    </g>
  </g>
</svg>

<svg width="375" height="108" viewBox="0 0 375 108" fill="none" xmlns="http://www.w3.org/2000/svg">
<path d="M375 0H0V108H375V0Z" fill="#2E4358"/>
<path d="M114.39 81.45L115.28 30.19H124.96L132.24 65.69L139.83 30.19H149.2L150.15 81.45H143.19L142.43 45.82L135.15 81.45H129.52L122.12 45.7L121.42 81.45H114.4H114.39Z" fill="white"/>
<path d="M159.61 81.45V30.19H181.13V36.77H168.98V51.51H178.54V58.03H168.98V74.99H181.26V81.44H159.62L159.61 81.45Z" fill="white"/>
<path d="M189.57 81.45V30.19H196.09L208.56 59.43V30.19H216.28V81.45H210.08L197.55 50.82V81.45H189.58H189.57Z" fill="white"/>
<path d="M239.46 82.15C236.38 82.15 233.81 81.55 231.74 80.35C229.67 79.15 228.11 77.39 227.06 75.07C226.01 72.75 225.41 69.9 225.29 66.53L233.33 64.95C233.41 66.93 233.66 68.68 234.06 70.2C234.46 71.72 235.07 72.89 235.9 73.71C236.72 74.53 237.81 74.94 239.16 74.94C240.68 74.94 241.75 74.49 242.39 73.58C243.02 72.67 243.34 71.52 243.34 70.13C243.34 67.89 242.83 66.06 241.82 64.62C240.81 63.19 239.46 61.75 237.77 60.32L231.32 54.62C229.51 53.06 228.06 51.32 226.99 49.4C225.91 47.48 225.38 45.11 225.38 42.28C225.38 38.23 226.56 35.11 228.92 32.91C231.28 30.72 234.51 29.62 238.6 29.62C241 29.62 243.01 29.99 244.61 30.73C246.21 31.47 247.49 32.49 248.44 33.8C249.39 35.11 250.1 36.6 250.56 38.26C251.02 39.93 251.32 41.69 251.45 43.54L243.48 44.93C243.4 43.33 243.22 41.89 242.94 40.63C242.67 39.36 242.18 38.37 241.48 37.66C240.78 36.94 239.76 36.58 238.41 36.58C237.06 36.58 235.95 37.03 235.21 37.94C234.47 38.85 234.1 39.98 234.1 41.33C234.1 43.06 234.46 44.48 235.18 45.6C235.9 46.72 236.93 47.87 238.28 49.05L244.67 54.68C246.78 56.45 248.58 58.53 250.08 60.91C251.58 63.29 252.33 66.17 252.33 69.55C252.33 72 251.79 74.17 250.72 76.07C249.65 77.97 248.15 79.46 246.23 80.53C244.31 81.61 242.06 82.14 239.49 82.14L239.46 82.15Z" fill="white"/>
</svg>
